svg/transport/car_3_fill.svg

<?xml version="1.0" encoding="UTF-8"?>
<svg width="24px" height="24px" viewBox="0 0 24 24" version="1.1" xmlns="http://www.w3.org/2000/svg" xmlns:xlink="http://www.w3.org/1999/xlink">
    <title>car_fill</title>
    <g id="页面-1" stroke="none" stroke-width="1" fill="none" fill-rule="evenodd">
        <g id="Transport" transform="translate(-384.000000, -144.000000)">
            <g id="car_fill" transform="translate(384.000000, 144.000000)">
                 <path d="M24,0 L24,24 L0,24 L0,0 L24,0 Z M12.5934901,23.257841 L12.5819402,23.2595131 L12.5108777,23.2950439 L12.4918791,23.2987469 L12.4918791,23.2987469 L12.4767152,23.2950439 L12.4056548,23.2595131 C12.3958229,23.2563662 12.3870493,23.2590235 12.3821421,23.2649074 L12.3780323,23.275831 L12.360941,23.7031097 L12.3658947,23.7234994 L12.3769048,23.7357139 L12.4804777,23.8096931 L12.4953491,23.8136134 L12.4953491,23.8136134 L12.5071152,23.8096931 L12.6106902,23.7357139 L12.6232938,23.7196733 L12.6232938,23.7196733 L12.6266527,23.7031097 L12.609561,23.275831 C12.6075724,23.2657013 12.6010112,23.2592993 12.5934901,23.257841 L12.5934901,23.257841 Z M12.8583906,23.1452862 L12.8445485,23.1473072 L12.6598443,23.2396597 L12.6498822,23.2499052 L12.6498822,23.2499052 L12.6471943,23.2611114 L12.6650943,23.6906389 L12.6699349,23.7034178 L12.6699349,23.7034178 L12.678386,23.7104931 L12.8793402,23.8032389 C12.8914285,23.8068999 12.9022333,23.8029875 12.9078286,23.7952264 L12.9118235,23.7811639 L12.8776777,23.1665331 C12.8752882,23.1545897 12.8674102,23.1470016 12.8583906,23.1452862 L12.8583906,23.1452862 Z M12.1430473,23.1473072 C12.1332178,23.1423925 12.1221763,23.1452606 12.1156365,23.1525954 L12.1099173,23.1665331 L12.0757714,23.7811639 C12.0751323,23.7926639 12.0828099,23.8018602 12.0926481,23.8045676 L12.108256,23.8032389 L12.3092106,23.7104931 L12.3186497,23.7024347 L12.3186497,23.7024347 L12.3225043,23.6906389 L12.340401,23.2611114 L12.337245,23.2485176 L12.337245,23.2485176 L12.3277531,23.2396597 L12.1430473,23.1473072 Z" id="MingCute" fill-rule="nonzero"></path>
                <path d="M8.16065,4 C7.08407,4 6.09004,4.57686 5.55592,5.51158 L3.56253,9 L2.4,9 C2.17909,9 2,9.17909 2,9.4 L2,9.87538 C2,10.2425 2.24984,10.5625 2.60597,10.6515 L2.62967,10.6574 C2.21339,11.5218 2.05349,12.4902 2.1731,13.4471 L2.89823,19.2481 C3.02333,20.2489 3.87414,21 4.88278,21 L5,21 C6.10457,21 7,20.1046 7,19 L17,19 C17,20.1046 17.8954,21 19,21 L19.1172,21 C20.1259,21 20.9767,20.2489 21.1018,19.2481 L21.8269,13.4471 C21.9465,12.4902 21.7866,11.5218 21.3703,10.6574 L21.394,10.6515 C21.7502,10.5625 22,10.2425 22,9.87538 L22,9.4 C22,9.17909 21.8209,9 21.6,9 L20.4375,9 L18.4441,5.51158 C17.91,4.57686 16.9159,4 15.8394,4 L8.16065,4 Z M18.4219,9.50386 L16.7076,6.50386 C16.5296,6.19229 16.1982,6 15.8394,6 L8.16065,6 C7.80179,6 7.47044,6.19229 7.2924,6.50386 L5.57812,9.50386 C5.19756,10.1705 5.67868,11 6.44636,11 L17.5536,11 C18.3215,11 18.8028,10.1705 18.4219,9.50386 Z M5,15.0392 L5,14.3382 C5,13.9596 5.40444,13.7184 5.73757,13.8983 L8.48023,15.3793 C8.85325,15.5808 8.69778,16.1479 8.27418,16.131 L5.96003,16.0384 C5.42372,16.0169 5,15.5759 5,15.0392 Z M19,14.3382 L19,15.0392 C19,15.5759 18.5763,16.0169 18.04,16.0384 L15.7258,16.131 C15.3022,16.1479 15.1467,15.5808 15.5198,15.3793 L18.2624,13.8983 C18.5956,13.7184 19,13.9596 19,14.3382 Z" id="形状" fill="#09244B"></path>
            </g>
        </g>
    </g>
</svg>

<svg xmlns="http://www.w3.org/2000/svg" width="24" height="24"><g fill="none" fill-rule="evenodd"><path d="M24 0v24H0V0h24ZM12.593 23.258l-.011.002-.071.035-.02.004-.014-.004-.071-.035c-.01-.004-.019-.001-.024.005l-.004.01-.017.428.005.02.01.013.104.074.015.004.012-.004.104-.074.012-.016.004-.017-.017-.427c-.002-.01-.009-.017-.017-.018Zm.265-.113-.013.002-.185.093-.01.01-.003.011.018.43.005.012.008.007.201.093c.012.004.023 0 .029-.008l.004-.014-.034-.614c-.003-.012-.01-.02-.02-.022Zm-.715.002a.023.023 0 0 0-.027.006l-.006.014-.034.614c0 .012.007.02.017.024l.015-.002.201-.093.01-.008.004-.011.017-.43-.003-.012-.01-.01-.184-.092Z"/><path fill="#09244B" d="M8.16 4a3 3 0 0 0-2.604 1.512L3.563 9H2.4a.4.4 0 0 0-.4.4v.475a.8.8 0 0 0 .606.777l.024.005a5 5 0 0 0-.457 2.79l.725 5.801A2 2 0 0 0 4.883 21H5a2 2 0 0 0 2-2h10a2 2 0 0 0 2 2h.117a2 2 0 0 0 1.985-1.752l.725-5.8a5 5 0 0 0-.457-2.79l.024-.006A.8.8 0 0 0 22 9.875V9.4a.4.4 0 0 0-.4-.4h-1.163l-1.993-3.488A3 3 0 0 0 15.84 4H8.161Zm10.262 5.504-1.714-3A1 1 0 0 0 15.839 6H8.161a1 1 0 0 0-.869.504l-1.714 3A1 1 0 0 0 6.446 11h11.108a1 1 0 0 0 .868-1.496ZM5 15.039v-.7a.5.5 0 0 1 .738-.44l2.742 1.48c.373.202.218.769-.206.752l-2.314-.093A1 1 0 0 1 5 15.04Zm14-.7v.7a1 1 0 0 1-.96 1l-2.314.092c-.424.017-.58-.55-.206-.752l2.742-1.48a.5.5 0 0 1 .738.44Z"/></g></svg>
